X: 1
T: Galloway Girth
M: 2/4
L: 1/8
R: polka
K: Emin
e>f gf/e/|dB B/A/B/d/|cA A/B/c/e/|dB B2|
e>f gf/e/|dB B/A/B/d/|cA BG|1E3 B:|2E2E2||
B>c BA| Bcd2|A>B AG|FGA2|
B>c BA| BcdB|cA BG|E2E2:|
